!! 00000] TT[00
!!!OTL: Cuimian ge
!!!ARE: Yunnan, Menghai
!! Ethnic Group: Hani
!! II, 92
!!!SCT: C1176
!!!YEM: Copyright 1995, estate of Helmut Schaffrath.
**kern
*ICvox
*Ivox
!! Irregular meter.
*MX
*k[]
*A:
{4cc#
8ee
4.aa
=1
4ccc#
16cccn
16bb
4.aa}
{8aa
8bb
8aa
8ccc#
32bb
32ccc#
16bb
16ccc#
16bb
4.aa}
{8aa
8cc#
8ee
4aa
=2
8ee
4aa
8ee
4aa}
{8bb
8aa
8cc#
4cc#
8ee
4.aa}
{8ccc#
4ccc#
8aa
4bb
=3
16ccc#
16bb
4aa
16ee
[16aa
4aa]}
{8ccc#
8bb
8aa
16.ccc#
32bb
8ccc#
8aa
8bb
8r}
{8aa
4cc#
8ee
4.aa
=4
8bb
4aa
8ee
4.aa}
{8cc#
8ee
8ee
4gg#
8gg#
4.ff#
=5
8gg#
8cc#
8cc#
4ee
8cc#
=6
4ee
8bb
4aa}
{8cc#
4cc#
8bb
4.aa
=7
8ee
4aa
8bb
4aa}
{8cc#
4cc#
8bb
4aa
=8
4aa
16.ccc#
32bb
8ccc#
8ccc#
4bb}
{16ccc#
16bb
4aa
16ee
16aa
4.aa
=9
8cc#
8ee
8gg#
4gg#
8gg#
4.ff#}
{8gg#
8cc#
8cc#
4ee
16gg#
16ff#
=10
4ee
8cc#
8ee
4.ff#}
{4cc#
8ee
4.aa
=11
4cccn
8bb
4.aa}
==
!!!AGN: Wiegenlied
!! +++ Vorgegeben waren 5/8 6/8 9/8. Als FREI geaendert! ++++++
!!!ONB: ESAC (Essen Associative Code) Database: CHINA_098
!!!AMT: irregular
!!!AIN: vox
!!!EED: Helmut Schaffrath
!!!EEV: 1.0
*-
